X:486
T:Sparve Lilla
T:Little Sparrow
Z:Jack Campin, http://www.campin.me.uk/
F:Jack Campin's Nine-Note Tunebook
% last edit 03-02-2013
G:Swedish polska from Varmland
M:3/4
L:1/8
Q:1/4=150
K:G
|:d2 Bd Bd |dc (3ABc (3 ABc|d2 BG A>F|  G>A B>d (3^cBc|
  d2 Bd Bd |dc (3ABc (3 ABc|d2 BG A>F|(3DEF G4       :|
|:D2 GB A>F|G2   B>d (3^cBc|d2 BG A>F|  G2  AB     G>F|
  D2 GB A>F|G2   B>d (3^cBc|d2 BG A>F|(3DEF G4       :|

